<?xml version="1.0" encoding="UTF-8"?>
<map version="1.8" tiledversion="1.8.2" orientation="orthogonal" renderorder="right-down" width="16" height="16" tilewidth="16" tileheight="16" infinite="0" backgroundcolor="#00ffff" nextlayerid="4" nextobjectid="12">
 <tileset firstgid="1" source="../../tiled/porthole.tsx"/>
 <layer id="1" name="Tile Layer 1" width="16" height="16">
  <data encoding="csv">
34,1,1,1,1,1,1,1,1,1,1,1,1,1,1,36,
34,1,1,1,1,1,1,1,1,1,1,1,1,1,1,36,
34,1,1,1,1,1,1,1,1,1,1,1,1,1,1,36,
34,1,1,1,1,1,1,1,1,1,1,1,1,1,1,36,
34,1,1,1,1,1,1,1,1,1,38,33,33,33,33,42,
34,1,1,1,1,1,1,1,1,1,39,35,35,35,35,43,
34,1,1,1,1,1,1,1,1,1,1,1,1,1,1,36,
54,24,17,17,17,17,17,17,17,17,17,17,17,17,17,36,
34,1,1,1,1,1,1,1,1,1,1,1,1,1,1,36,
41,33,33,33,33,37,1,1,1,1,1,1,1,1,1,36,
44,35,35,35,35,40,1,1,1,1,1,1,1,1,1,36,
34,1,1,1,1,1,1,1,1,1,1,1,1,1,1,36,
34,1,1,1,1,1,1,1,1,1,1,1,1,1,1,36,
34,1,1,1,1,1,1,1,1,1,1,1,1,1,1,36,
34,1,1,1,1,1,1,1,1,1,38,33,33,33,33,42,
34,1,1,1,1,1,1,1,1,1,36,54,54,54,54,54
</data>
 </layer>
 <objectgroup id="2" name="objects"/>
 <objectgroup id="3" name="meta">
  <object id="9" name="edge_exit_02" type="edge_exit" x="16" y="240" width="144" height="16">
   <properties>
    <property name="id" value="edge_exit_02"/>
    <property name="to" value="room00"/>
   </properties>
  </object>
  <object id="10" name="edge_exit_03" type="edge_exit" x="16" y="0" width="224" height="16">
   <properties>
    <property name="id" value="edge_exit_03"/>
    <property name="to" value="room02"/>
   </properties>
  </object>
  <object id="11" name="laser_01" type="laser" x="240" y="112" width="16" height="16">
   <properties>
    <property name="dir" value="right"/>
    <property name="id" value="laser_01"/>
   </properties>
  </object>
 </objectgroup>
</map>
