<?xml version="1.0" encoding="UTF-8"?>
<map version="1.8" tiledversion="1.8.2" orientation="orthogonal" renderorder="right-down" width="16" height="16" tilewidth="16" tileheight="16" infinite="0" backgroundcolor="#00ffff" nextlayerid="4" nextobjectid="14">
 <tileset firstgid="1" source="../../tiled/porthole.tsx"/>
 <layer id="1" name="Tile Layer 1" width="16" height="16">
  <data encoding="csv">
44,35,35,35,35,35,35,35,35,35,35,35,54,35,35,43,
34,1,1,13,1,1,1,1,1,1,1,1,15,1,1,36,
34,4,5,14,1,1,1,1,1,1,1,1,1,1,1,36,
34,6,7,14,1,1,1,1,1,1,1,1,1,1,1,36,
41,33,33,33,33,37,1,1,1,1,1,1,1,1,1,36,
44,35,35,35,35,40,1,1,1,1,1,1,1,1,1,36,
34,1,1,1,1,1,1,1,1,1,1,1,1,1,21,54,
34,1,1,1,1,1,1,1,1,1,1,1,1,1,1,36,
34,1,1,1,1,1,1,1,1,1,38,33,33,33,33,42,
34,1,1,1,1,1,1,1,1,1,39,35,35,35,35,43,
34,1,1,1,1,1,1,1,1,1,1,1,1,1,1,36,
34,1,1,1,1,1,1,1,1,1,1,1,1,1,1,36,
34,1,1,1,1,1,1,1,1,1,1,1,1,1,1,36,
41,33,33,37,1,1,1,1,1,1,1,1,1,1,1,36,
44,35,35,40,1,1,1,1,1,1,1,1,1,1,1,36,
34,1,1,1,1,1,1,1,1,1,1,1,1,1,1,36
</data>
 </layer>
 <objectgroup id="2" name="objects">
  <object id="11" name="spawner_00" type="spawner" x="192" y="16">
   <properties>
    <property name="channel" value="1"/>
    <property name="id" value="spawner_00"/>
   </properties>
   <point/>
  </object>
  <object id="13" name="exit_00" type="exit" x="16" y="32">
   <properties>
    <property name="channel" value="0"/>
    <property name="id" value="exit_00"/>
   </properties>
   <point/>
  </object>
 </objectgroup>
 <objectgroup id="3" name="meta">
  <object id="9" name="edge_exit_08" type="edge_exit" x="16" y="240" width="224" height="16">
   <properties>
    <property name="id" value="edge_exit_08"/>
    <property name="to" value="room03"/>
   </properties>
  </object>
  <object id="10" name="target_00" type="target" x="224" y="96" width="16" height="16">
   <properties>
    <property name="channel" value="1"/>
    <property name="id" value="target_00"/>
   </properties>
  </object>
  <object id="12" name="fizzler_0" type="fizzler" x="48" y="16" width="16" height="48"/>
 </objectgroup>
</map>
