<?xml version="1.0" encoding="UTF-8"?>
<map version="1.8" tiledversion="1.8.2" orientation="orthogonal" renderorder="right-down" width="16" height="16" tilewidth="16" tileheight="16" infinite="0" backgroundcolor="#00ffff" nextlayerid="4" nextobjectid="12">
 <tileset firstgid="1" source="../../tiled/porthole.tsx"/>
 <layer id="1" name="Tile Layer 1" width="16" height="16">
  <data encoding="csv">
34,1,1,1,1,1,1,1,1,1,1,1,1,1,1,36,
34,1,1,1,1,1,1,1,1,1,1,1,1,1,1,36,
34,1,1,1,1,1,1,1,1,1,1,1,1,1,1,36,
34,1,1,1,1,1,1,1,1,1,1,1,1,1,1,36,
34,1,1,1,1,1,1,1,1,1,1,1,1,1,1,36,
34,1,1,1,1,1,1,1,1,1,38,33,33,33,33,42,
34,1,1,1,1,1,1,1,1,1,39,35,35,35,35,43,
34,1,1,1,1,1,1,1,1,1,1,1,1,1,1,36,
34,1,1,1,1,1,1,1,1,1,1,1,1,1,1,36,
34,1,1,1,1,1,1,1,1,1,1,1,1,1,1,36,
34,1,1,1,1,1,1,1,1,1,1,1,1,1,1,36,
34,1,1,1,1,1,1,1,1,1,1,1,1,1,1,36,
34,1,1,1,1,1,1,1,1,1,1,1,1,1,1,36,
34,1,1,1,1,1,1,1,1,1,1,1,1,1,1,36,
34,1,1,1,1,1,38,33,33,37,1,1,1,1,1,36,
34,1,1,1,1,1,39,35,35,40,1,1,1,1,1,36
</data>
 </layer>
 <objectgroup id="2" name="objects"/>
 <objectgroup id="3" name="meta">
  <object id="9" name="edge_exit_07" type="edge_exit" x="16" y="0" width="224" height="16">
   <properties>
    <property name="id" value="edge_exit_07"/>
    <property name="to" value="room04"/>
   </properties>
  </object>
  <object id="10" name="edge_exit_06" type="edge_exit" x="16" y="240" width="80" height="16">
   <properties>
    <property name="id" value="edge_exit_06"/>
    <property name="to" value="room02"/>
   </properties>
  </object>
  <object id="11" name="edge_exit_09" type="edge_exit" x="160" y="240" width="80" height="16">
   <properties>
    <property name="id" value="edge_exit_09"/>
    <property name="to" value="room02"/>
   </properties>
  </object>
 </objectgroup>
</map>
