<?xml version="1.0" encoding="UTF-8"?>
<map version="1.8" tiledversion="1.8.2" orientation="orthogonal" renderorder="right-down" width="16" height="16" tilewidth="16" tileheight="16" infinite="0" backgroundcolor="#00ffff" nextlayerid="4" nextobjectid="11">
 <tileset firstgid="1" source="../../tiled/porthole.tsx"/>
 <layer id="1" name="Tile Layer 1" width="16" height="16">
  <data encoding="csv">
34,1,1,1,1,1,1,1,1,1,39,35,35,35,35,43,
34,1,1,1,1,1,1,1,1,1,1,1,1,1,1,36,
34,1,1,1,1,0,1,1,1,1,1,0,1,0,1,36,
41,33,33,33,37,0,1,1,1,1,1,0,0,1,1,36,
44,35,35,35,40,0,1,1,1,1,1,0,1,1,1,36,
34,1,0,0,0,0,0,0,0,1,0,0,1,1,1,36,
34,1,1,0,0,1,1,1,1,1,1,1,1,1,1,36,
34,1,1,1,1,38,33,33,37,1,1,1,1,1,1,36,
34,0,1,1,1,39,35,35,40,1,1,1,1,1,1,36,
34,1,1,0,0,1,1,0,1,1,1,1,1,1,1,36,
34,1,0,1,1,1,1,0,1,1,1,1,1,1,1,36,
34,1,0,1,1,1,1,0,1,1,38,33,33,37,1,36,
34,1,1,0,0,0,0,0,1,1,39,35,35,40,1,36,
34,1,1,1,38,50,51,37,1,1,1,1,1,1,1,36,
34,1,1,1,39,35,35,40,1,1,1,1,1,1,1,36,
34,12,12,12,12,12,12,12,12,12,12,12,12,12,12,36
</data>
 </layer>
 <objectgroup id="2" name="objects">
  <object id="10" name="pas_00" type="pad" x="80" y="208" width="32" height="16">
   <properties>
    <property name="channel" value="0"/>
    <property name="id" value="pad_00"/>
   </properties>
  </object>
 </objectgroup>
 <objectgroup id="3" name="meta">
  <object id="5" name="start" type="start" x="96" y="80">
   <point/>
  </object>
  <object id="9" name="edge_exit_01" type="edge_exit" x="16" y="0" width="144" height="16">
   <properties>
    <property name="id" value="edge_exit_01"/>
    <property name="to" value="room01"/>
   </properties>
  </object>
 </objectgroup>
</map>
