<?xml version="1.0" encoding="UTF-8"?>
<map version="1.8" tiledversion="1.8.2" orientation="orthogonal" renderorder="right-down" width="16" height="16" tilewidth="16" tileheight="16" infinite="0" nextlayerid="4" nextobjectid="15">
 <tileset firstgid="1" source="../../tiled/porthole.tsx"/>
 <layer id="1" name="Tile Layer 1" width="16" height="16">
  <data encoding="csv">
54,54,54,54,54,54,54,54,54,54,54,54,54,54,54,54,
1,1,1,1,1,1,1,1,1,1,1,1,1,1,1,54,
1,0,30,30,30,1,0,0,0,0,30,30,30,0,1,54,
1,0,30,30,30,1,0,0,0,0,30,30,30,1,1,54,
1,0,30,30,30,0,0,0,0,0,30,30,30,1,1,54,
1,1,0,0,0,0,0,0,1,1,1,1,1,1,1,54,
33,33,33,33,37,12,12,12,12,12,38,33,33,33,33,54,
54,54,54,54,41,33,33,33,33,33,42,54,54,54,54,54,
54,54,54,54,54,54,35,35,35,35,35,35,35,35,35,54,
54,4,5,13,30,30,1,1,1,1,1,1,1,1,1,36,
54,6,7,14,30,30,1,1,1,1,1,1,1,1,1,36,
35,35,35,35,35,35,47,1,1,1,1,1,1,1,1,36,
1,1,1,1,1,1,0,0,1,1,1,1,1,1,1,36,
1,1,1,1,1,1,1,1,1,1,1,1,1,2,1,36,
1,1,1,1,1,1,1,1,1,1,1,1,38,54,54,42,
33,33,33,33,33,33,33,33,12,12,12,12,36,54,54,54
</data>
 </layer>
 <objectgroup id="2" name="objects">
  <object id="11" name="exit_0" type="exit" x="16" y="144">
   <properties>
    <property name="channel" value="0"/>
    <property name="id" value="exit_0"/>
   </properties>
   <point/>
  </object>
 </objectgroup>
 <objectgroup id="3" name="meta">
  <object id="5" name="start" type="start" x="208" y="64">
   <point/>
  </object>
  <object id="10" name="button_0" type="button" x="208" y="208" width="16" height="16">
   <properties>
    <property name="channel" value="0"/>
    <property name="id" value="button_0"/>
   </properties>
  </object>
  <object id="12" name="fizzler" type="fizzler" x="48" y="144" width="16" height="32">
   <properties>
    <property name="id" value="fizzler_0"/>
   </properties>
  </object>
  <object id="13" name="edge_exit_01" type="edge_exit" x="0" y="16" width="16" height="80">
   <properties>
    <property name="id" value="edge_exit_01"/>
    <property name="to" value="room01"/>
   </properties>
  </object>
  <object id="14" name="edge_exit_02" type="edge_exit" x="0" y="192" width="16" height="48">
   <properties>
    <property name="id" value="edge_exit_02"/>
    <property name="to" value="room01"/>
   </properties>
  </object>
 </objectgroup>
</map>
