<?xml version="1.0" encoding="UTF-8"?>
<map version="1.8" tiledversion="1.8.2" orientation="orthogonal" renderorder="right-down" width="16" height="16" tilewidth="16" tileheight="16" infinite="0" backgroundcolor="#00ffff" nextlayerid="4" nextobjectid="12">
 <tileset firstgid="1" source="../../tiled/porthole.tsx"/>
 <layer id="1" name="Tile Layer 1" width="16" height="16">
  <data encoding="csv">
54,54,54,54,54,54,54,54,54,54,34,1,1,1,1,36,
54,54,54,54,54,54,54,54,54,54,34,1,1,1,1,36,
54,54,54,54,54,54,54,54,54,54,34,1,1,1,1,36,
54,54,54,54,54,54,54,54,54,54,34,1,1,1,1,36,
54,54,54,54,54,54,54,54,54,54,34,1,1,1,1,36,
44,35,35,35,35,35,35,35,35,35,40,1,1,1,1,36,
34,1,1,1,1,1,1,1,1,1,1,1,1,1,1,36,
34,1,1,1,1,1,1,1,1,1,1,1,1,1,1,36,
34,1,1,1,1,1,1,1,1,1,1,1,1,1,1,36,
34,1,1,1,1,1,1,2,1,1,1,1,1,1,1,36,
34,1,1,1,1,38,33,54,33,33,33,33,33,33,33,42,
34,1,1,1,1,36,54,54,54,54,54,54,54,54,54,54,
34,1,1,1,1,36,54,54,54,54,54,54,54,54,54,54,
34,1,4,5,1,36,54,54,54,54,54,54,54,54,54,54,
34,1,6,7,1,36,54,54,54,54,54,54,54,54,54,54,
54,54,54,54,54,54,54,54,54,54,54,54,54,54,54,54
</data>
 </layer>
 <objectgroup id="2" name="objects">
  <object id="9" name="exit" type="exit" x="32" y="208">
   <properties>
    <property name="channel" value="2"/>
    <property name="id" value="exit_00"/>
   </properties>
   <point/>
  </object>
 </objectgroup>
 <objectgroup id="3" name="meta">
  <object id="10" name="button_04" type="button" x="112" y="144" width="16" height="16">
   <properties>
    <property name="channel" value="2"/>
    <property name="id" value="button_04"/>
   </properties>
  </object>
  <object id="11" name="edge_exit_06" type="edge_exit" x="176" y="0" width="64" height="16">
   <properties>
    <property name="id" value="edge_exit_06"/>
    <property name="to" value="room02"/>
   </properties>
  </object>
 </objectgroup>
</map>
