<?xml version="1.0" encoding="UTF-8"?>
<map version="1.8" tiledversion="1.8.2" orientation="orthogonal" renderorder="right-down" width="16" height="16" tilewidth="16" tileheight="16" infinite="0" nextlayerid="4" nextobjectid="15">
 <tileset firstgid="1" source="../../tiled/porthole.tsx"/>
 <layer id="1" name="Tile Layer 1" width="16" height="16">
  <data encoding="csv">
54,54,54,54,54,54,54,54,54,54,54,54,54,54,54,54,
54,1,1,1,1,1,1,1,1,1,1,1,1,1,1,1,
54,0,30,30,30,0,0,0,1,0,1,1,1,0,1,1,
54,0,30,30,30,1,0,0,0,1,1,1,1,1,1,1,
54,0,30,30,30,1,1,38,12,12,12,12,37,1,1,1,
54,1,0,1,1,0,0,39,35,35,35,35,40,1,1,1,
54,1,45,46,47,1,1,1,1,1,1,1,1,38,54,54,
54,1,1,1,1,1,1,1,1,1,1,1,1,39,54,54,
54,1,1,1,1,1,1,1,1,1,1,1,1,1,1,54,
54,1,1,1,38,12,12,12,37,1,1,30,30,30,1,54,
54,1,1,1,39,35,35,35,40,1,1,30,30,30,1,54,
54,1,1,1,1,1,0,1,1,1,1,30,30,30,1,54,
54,1,1,1,1,1,1,1,1,1,1,1,1,1,1,1,
54,1,1,1,1,1,1,1,1,1,1,45,46,47,1,1,
54,1,1,1,1,1,1,1,1,1,1,1,1,1,1,1,
54,12,12,12,12,12,12,12,12,12,12,12,12,12,33,33
</data>
 </layer>
 <objectgroup id="2" name="objects"/>
 <objectgroup id="3" name="meta">
  <object id="13" name="edge_exit_02" type="edge_exit" x="240" y="16" width="16" height="80">
   <properties>
    <property name="id" value="edge_exit_02"/>
    <property name="to" value="room00"/>
   </properties>
  </object>
  <object id="14" name="edge_exit_03" type="edge_exit" x="240" y="192" width="16" height="64">
   <properties>
    <property name="id" value="edge_exit_03"/>
    <property name="to" value="room00"/>
   </properties>
  </object>
 </objectgroup>
</map>
