<?xml version="1.0" encoding="UTF-8"?>
<map version="1.8" tiledversion="1.8.2" orientation="orthogonal" renderorder="right-down" width="16" height="16" tilewidth="16" tileheight="16" infinite="0" backgroundcolor="#00ffff" nextlayerid="4" nextobjectid="12">
 <tileset firstgid="1" source="../../tiled/porthole.tsx"/>
 <layer id="1" name="Tile Layer 1" width="16" height="16">
  <data encoding="csv">
54,54,54,54,54,54,54,54,54,54,54,54,54,54,54,54,
54,54,54,54,54,54,54,54,54,54,54,54,54,54,54,54,
54,44,35,35,35,35,35,35,35,35,35,35,54,35,35,43,
54,34,1,1,1,1,1,1,1,1,1,1,15,1,1,36,
54,34,1,1,1,1,1,1,1,1,1,1,1,1,1,36,
54,34,1,1,1,1,1,1,1,1,1,1,1,1,1,36,
54,34,1,1,1,1,1,1,1,1,1,1,1,1,1,36,
54,34,1,1,1,1,1,1,1,1,1,1,1,1,1,36,
54,34,1,1,1,1,1,1,1,1,1,1,1,1,1,36,
54,34,1,1,1,1,1,1,1,38,33,33,33,33,33,42,
35,40,1,1,1,1,1,1,1,36,54,54,54,54,54,54,
1,1,1,1,1,1,1,1,1,36,54,54,54,54,54,54,
1,1,1,1,1,1,1,1,1,36,54,54,54,54,54,54,
1,1,1,1,1,1,1,1,1,36,54,54,54,54,54,54,
1,1,1,1,1,2,1,1,1,36,54,54,54,54,54,54,
33,33,33,33,33,54,33,33,33,42,54,54,54,54,54,54
</data>
 </layer>
 <objectgroup id="2" name="objects">
  <object id="10" name="spawner_00" type="spawner" x="192" y="48">
   <properties>
    <property name="channel" value="1"/>
    <property name="id" value="spawner_00"/>
   </properties>
   <point/>
  </object>
 </objectgroup>
 <objectgroup id="3" name="meta">
  <object id="9" name="button_00" type="button" x="80" y="224" width="16" height="16">
   <properties>
    <property name="channel" value="1"/>
    <property name="id" value="button_00"/>
   </properties>
  </object>
  <object id="11" name="edge_exit_05" type="edge_exit" x="0" y="176" width="16" height="64">
   <properties>
    <property name="id" value="edge_exit_05"/>
    <property name="to" value="room02"/>
   </properties>
  </object>
 </objectgroup>
</map>
