<?xml version="1.0" encoding="UTF-8"?>
<map version="1.8" tiledversion="1.8.2" orientation="orthogonal" renderorder="right-down" width="16" height="16" tilewidth="16" tileheight="16" infinite="0" nextlayerid="4" nextobjectid="15">
 <tileset firstgid="1" source="../../tiled/porthole.tsx"/>
 <layer id="1" name="Tile Layer 1" width="16" height="16">
  <data encoding="csv">
44,35,35,35,35,35,35,35,35,35,35,35,35,35,35,43,
34,1,1,1,1,1,55,1,1,1,1,1,13,4,5,54,
34,0,0,1,1,0,56,0,0,0,0,0,14,6,7,54,
41,33,37,1,1,38,54,54,54,54,54,54,54,54,54,54,
44,35,40,1,1,39,35,35,35,35,35,35,35,35,35,54,
34,1,0,0,0,0,0,0,0,1,0,0,1,1,1,54,
34,1,1,0,0,0,0,0,1,1,1,1,1,1,1,54,
34,1,1,0,0,0,0,0,1,38,33,33,33,50,51,54,
34,1,0,0,0,1,1,1,1,39,35,43,54,54,54,54,
34,1,0,0,1,1,0,1,1,1,1,36,54,54,54,54,
34,1,1,1,1,0,0,1,1,1,1,36,54,54,54,54,
34,1,1,45,46,48,49,47,1,1,1,39,35,35,35,35,
34,0,0,0,0,36,34,1,1,1,1,1,1,1,1,1,
34,0,0,0,0,36,34,1,1,1,1,1,1,1,1,1,
34,0,0,1,1,36,34,1,1,1,1,1,1,1,1,1,
41,12,12,12,12,42,41,33,33,33,33,33,33,33,33,33
</data>
 </layer>
 <objectgroup id="2" name="objects">
  <object id="3" name="exit" type="exit" x="208" y="16">
   <properties>
    <property name="channel" value="0"/>
    <property name="id" value="exit_00"/>
   </properties>
   <point/>
  </object>
  <object id="9" name="pad_00" type="pad" x="208" y="112" width="32" height="16">
   <properties>
    <property name="channel" value="1"/>
    <property name="id" value="pad_00"/>
   </properties>
  </object>
  <object id="10" x="96" y="16" width="16" height="32"/>
  <object id="12" name="barrier_00" type="barrier" x="96" y="16">
   <properties>
    <property name="channel" value="1"/>
    <property name="id" value="barrier_00"/>
   </properties>
   <point/>
  </object>
 </objectgroup>
 <objectgroup id="3" name="meta">
  <object id="5" name="start" type="start" x="80" y="144">
   <point/>
  </object>
  <object id="13" name="edge_exit_right" type="edge_exit" x="240" y="192" width="16" height="48">
   <properties>
    <property name="to" value="room01"/>
   </properties>
  </object>
  <object id="14" name="fizzler_0" type="fizzler" x="192" y="16" width="16" height="32">
   <properties>
    <property name="id" value="fizzler_0"/>
   </properties>
  </object>
 </objectgroup>
</map>
