<?xml version="1.0" encoding="UTF-8"?>
<map version="1.8" tiledversion="1.8.2" orientation="orthogonal" renderorder="right-down" width="16" height="16" tilewidth="16" tileheight="16" infinite="0" backgroundcolor="#00ffff" nextlayerid="4" nextobjectid="19">
 <tileset firstgid="1" source="../../tiled/porthole.tsx"/>
 <layer id="1" name="Tile Layer 1" width="16" height="16">
  <data encoding="csv">
44,35,35,35,35,35,35,54,35,35,35,35,35,35,35,43,
34,1,1,1,1,1,1,13,1,1,1,1,1,1,1,36,
34,0,0,0,1,1,1,14,0,0,1,1,1,0,1,36,
34,0,0,1,45,46,46,48,49,47,1,1,1,1,1,36,
40,0,0,1,1,1,1,39,40,1,1,1,1,1,1,36,
1,1,1,1,0,0,0,1,1,1,1,1,1,1,1,36,
1,1,1,1,1,1,1,38,37,1,1,1,1,1,1,36,
33,33,33,33,33,33,33,42,40,1,1,1,1,1,1,36,
35,35,35,35,35,35,35,40,1,1,1,1,1,38,33,42,
1,1,1,1,1,1,1,1,1,1,1,1,38,42,54,54,
1,1,1,1,1,1,1,1,1,1,1,1,36,54,54,54,
33,37,1,1,1,1,1,1,1,1,1,1,36,54,54,54,
54,34,1,1,1,1,45,47,1,1,45,46,35,35,35,43,
54,41,33,37,1,1,1,1,1,1,1,1,1,1,1,36,
54,54,54,34,1,1,1,1,1,1,1,1,1,1,1,36,
54,54,54,41,33,33,33,33,33,33,33,33,33,33,33,42
</data>
 </layer>
 <objectgroup id="2" name="objects"/>
 <objectgroup id="3" name="meta">
  <object id="16" name="fizzler_0" type="fizzler" x="112" y="16" width="16" height="32">
   <properties>
    <property name="id" value="fizzler_0"/>
   </properties>
  </object>
  <object id="17" name="edge_exit_3" type="edge_exit" x="0" y="80" width="16" height="32">
   <properties>
    <property name="id" value="edge_exit_3"/>
    <property name="to" value="room00"/>
   </properties>
  </object>
  <object id="18" name="edge_exit_2" type="edge_exit" x="0" y="144" width="16" height="32">
   <properties>
    <property name="id" value="edge_exit_2"/>
    <property name="to" value="room00"/>
   </properties>
  </object>
 </objectgroup>
</map>
