<?xml version="1.0" encoding="UTF-8"?>
<map version="1.8" tiledversion="1.8.2" orientation="orthogonal" renderorder="right-down" width="16" height="16" tilewidth="16" tileheight="16" infinite="0" nextlayerid="4" nextobjectid="12">
 <tileset firstgid="1" source="../../tiled/porthole.tsx"/>
 <layer id="1" name="Tile Layer 1" width="16" height="16">
  <data encoding="csv">
54,34,1,1,1,1,1,36,54,54,54,54,54,54,54,54,
54,34,1,1,1,1,1,36,54,44,35,35,35,35,35,43,
54,34,0,0,0,0,0,36,44,40,0,0,1,0,1,36,
54,34,1,1,1,1,0,36,34,0,0,0,0,1,1,36,
54,34,1,1,1,1,1,36,34,0,0,0,1,1,1,36,
54,34,0,0,0,0,0,36,34,1,0,0,1,1,1,36,
54,34,1,0,0,0,0,36,34,1,1,1,1,1,1,36,
54,34,1,0,0,0,0,36,34,1,1,1,1,1,1,36,
54,34,1,0,0,0,0,36,34,1,1,1,1,1,1,36,
54,34,1,0,0,0,0,36,34,1,1,1,1,1,1,36,
54,34,0,0,0,0,0,36,54,50,51,33,37,1,1,36,
35,40,0,0,0,0,0,39,35,35,35,35,40,1,1,36,
1,1,1,0,0,0,0,0,1,1,1,1,1,1,1,36,
1,1,1,1,1,1,1,1,1,1,1,1,1,1,1,36,
1,1,1,1,1,1,1,1,1,1,1,1,1,1,1,36,
33,33,33,33,33,33,33,33,33,33,33,33,33,33,33,42
</data>
 </layer>
 <objectgroup id="2" name="objects">
  <object id="11" name="pad_01" type="pad" x="144" y="160" width="32" height="16">
   <properties>
    <property name="channel" value="1"/>
    <property name="id" value="pad_01"/>
   </properties>
  </object>
 </objectgroup>
 <objectgroup id="3" name="meta">
  <object id="9" name="edge_exit_13" type="edge_exit" x="32" y="0" width="80" height="16">
   <properties>
    <property name="id" value="edge_exit_13"/>
    <property name="to" value="room04"/>
   </properties>
  </object>
  <object id="10" name="edge_exit_14" type="edge_exit" x="0" y="192" width="16" height="48">
   <properties>
    <property name="id" value="edge_exit_14"/>
    <property name="to" value="room02"/>
   </properties>
  </object>
 </objectgroup>
</map>
