<?xml version="1.0" encoding="UTF-8"?>
<map version="1.8" tiledversion="1.8.2" orientation="orthogonal" renderorder="right-down" width="16" height="16" tilewidth="16" tileheight="16" infinite="0" nextlayerid="4" nextobjectid="11">
 <tileset firstgid="1" source="../../tiled/porthole.tsx"/>
 <layer id="1" name="Tile Layer 1" width="16" height="16">
  <data encoding="csv">
44,35,35,35,35,35,35,35,35,35,35,35,35,35,35,35,
34,1,1,1,1,1,1,1,1,1,1,1,1,1,1,1,
34,0,0,0,0,0,0,0,0,0,0,0,1,0,1,1,
34,0,0,0,0,0,0,0,0,0,0,0,0,1,1,1,
41,33,33,33,37,1,1,1,38,33,33,33,33,33,33,33,
44,35,35,35,40,1,1,1,39,35,35,35,35,35,35,43,
34,1,1,0,0,0,0,0,1,1,1,1,1,1,1,36,
34,1,1,0,0,0,0,0,1,1,1,1,1,1,1,36,
34,0,1,0,0,0,0,1,1,1,1,1,1,1,1,36,
41,33,33,33,33,33,33,33,33,37,1,1,1,1,1,36,
54,54,54,54,54,54,54,54,54,34,1,1,1,1,1,36,
54,54,54,54,54,54,54,54,54,40,1,1,1,1,1,36,
54,1,1,1,1,1,1,1,1,1,1,1,1,1,1,36,
54,1,1,1,1,1,1,1,1,1,1,1,1,1,1,36,
54,12,12,12,12,12,12,12,54,37,1,1,1,1,1,36,
54,54,54,54,54,54,54,54,54,34,1,1,1,1,1,36
</data>
 </layer>
 <objectgroup id="2" name="objects"/>
 <objectgroup id="3" name="meta">
  <object id="5" name="start" type="start" x="32" y="32">
   <point/>
  </object>
  <object id="9" name="edge_exit_02" type="edge_exit" x="240" y="16" width="16" height="48">
   <properties>
    <property name="id" value="edge_exit_02"/>
    <property name="to" value="room03"/>
   </properties>
  </object>
  <object id="10" name="edge_exit_01" type="edge_exit" x="160" y="240" width="80" height="16">
   <properties>
    <property name="id" value="edge_exit_01"/>
    <property name="to" value="room01"/>
   </properties>
  </object>
 </objectgroup>
</map>
