<?xml version="1.0" encoding="UTF-8"?>
<map version="1.8" tiledversion="1.8.2" orientation="orthogonal" renderorder="right-down" width="16" height="16" tilewidth="16" tileheight="16" infinite="0" backgroundcolor="#00ffff" nextlayerid="4" nextobjectid="21">
 <tileset firstgid="1" source="../../tiled/porthole.tsx"/>
 <layer id="1" name="Tile Layer 1" width="16" height="16">
  <data encoding="csv">
35,54,35,35,35,35,35,54,54,35,35,35,35,35,54,35,
1,55,1,1,1,1,1,55,55,1,1,1,1,1,55,1,
1,56,1,1,1,1,1,56,56,1,1,1,1,1,56,1,
1,57,1,1,1,1,1,57,57,1,1,1,1,1,57,1,
33,54,37,1,1,1,38,54,54,37,1,1,1,38,54,33,
54,54,34,1,2,1,36,54,54,34,1,2,1,36,54,54,
54,54,54,54,54,54,54,54,54,54,54,54,54,54,54,54,
44,35,35,35,35,43,54,54,54,54,44,35,35,35,35,43,
34,1,1,1,1,36,54,54,54,54,34,1,1,1,1,36,
34,1,1,1,1,39,35,35,35,35,40,1,1,1,1,36,
34,1,1,1,1,1,1,1,1,1,1,1,1,1,1,36,
40,1,1,1,1,1,1,1,1,1,1,1,1,1,1,39,
1,1,1,1,1,38,12,12,12,12,37,1,1,1,1,1,
1,1,1,1,1,36,54,54,54,54,34,1,1,1,1,1,
1,1,1,1,1,36,54,54,54,54,34,1,1,1,1,1,
33,33,33,33,33,42,54,54,54,54,41,33,33,33,33,33
</data>
 </layer>
 <objectgroup id="2" name="objects">
  <object id="15" name="barrier_03" type="barrier" x="16" y="16" width="16" height="48">
   <properties>
    <property name="channel" value="1"/>
    <property name="id" value="barrier_03"/>
    <property name="invert" value="1"/>
   </properties>
  </object>
  <object id="16" name="barrier_04" type="barrier" x="112" y="16" width="16" height="48">
   <properties>
    <property name="channel" value="1"/>
    <property name="id" value="barrier_04"/>
    <property name="invert" value="0"/>
   </properties>
  </object>
  <object id="17" name="barrier_05" type="barrier" x="128" y="16" width="16" height="48">
   <properties>
    <property name="channel" value="1"/>
    <property name="id" value="barrier_05"/>
    <property name="invert" value="0"/>
   </properties>
  </object>
  <object id="18" name="barrier_06" type="barrier" x="224" y="16" width="16" height="48">
   <properties>
    <property name="channel" value="1"/>
    <property name="id" value="barrier_06"/>
    <property name="invert" value="1"/>
   </properties>
  </object>
 </objectgroup>
 <objectgroup id="3" name="meta">
  <object id="9" name="edge_exit_03" type="edge_exit" x="0" y="16" width="16" height="48">
   <properties>
    <property name="id" value="edge_exit_03"/>
    <property name="to" value="room00"/>
   </properties>
  </object>
  <object id="11" name="edge_exit_05" type="edge_exit" x="240" y="16" width="16" height="48">
   <properties>
    <property name="id" value="edge_exit_05"/>
    <property name="to" value="room02"/>
   </properties>
  </object>
  <object id="12" name="edge_exit_04" type="edge_exit" x="0" y="192" width="16" height="48">
   <properties>
    <property name="id" value="edge_exit_01"/>
    <property name="to" value="room00"/>
   </properties>
  </object>
  <object id="13" name="edge_exit_06" type="edge_exit" x="240" y="192" width="16" height="48">
   <properties>
    <property name="id" value="edge_exit_06"/>
    <property name="to" value="room02"/>
   </properties>
  </object>
  <object id="19" name="button_02" type="button" x="64" y="80" width="16" height="16">
   <properties>
    <property name="channel" value="1"/>
    <property name="id" value="button_02"/>
   </properties>
  </object>
  <object id="20" name="button_3" type="button" x="176" y="80" width="16" height="16">
   <properties>
    <property name="channel" value="1"/>
    <property name="id" value="button_03"/>
   </properties>
  </object>
 </objectgroup>
</map>
