<?xml version="1.0" encoding="UTF-8"?>
<map version="1.8" tiledversion="1.8.2" orientation="orthogonal" renderorder="right-down" width="16" height="16" tilewidth="16" tileheight="16" infinite="0" backgroundcolor="#00ffff" nextlayerid="4" nextobjectid="18">
 <tileset firstgid="1" source="../../tiled/porthole.tsx"/>
 <layer id="1" name="Tile Layer 1" width="16" height="16">
  <data encoding="csv">
44,35,35,35,35,35,35,43,54,44,35,35,35,35,54,35,
34,1,1,1,1,1,1,36,54,34,1,1,1,1,55,1,
34,0,0,0,0,0,0,36,54,34,0,0,1,1,56,1,
34,0,0,0,0,0,0,39,54,40,0,0,1,1,57,1,
34,0,0,0,0,0,0,1,55,1,0,0,1,38,54,33,
34,1,0,0,0,0,0,1,56,1,1,0,1,36,54,54,
34,1,1,0,0,0,0,1,57,1,1,1,1,36,54,54,
41,33,37,1,1,38,33,33,54,33,33,33,33,42,54,54,
44,35,40,1,1,39,35,43,54,54,54,54,54,54,54,54,
34,1,1,0,0,0,0,36,54,54,54,54,54,54,54,54,
34,1,0,0,0,0,0,36,54,54,54,54,54,54,54,54,
54,58,59,59,59,59,60,54,54,54,54,54,54,54,54,54,
34,1,1,0,0,0,0,36,54,1,1,13,1,1,1,1,
34,1,1,1,1,1,1,36,54,4,5,14,1,1,1,1,
34,1,1,1,1,1,2,36,54,6,7,14,1,1,1,1,
41,33,33,33,33,33,33,42,54,54,54,54,54,54,54,54
</data>
 </layer>
 <objectgroup id="2" name="objects">
  <object id="3" name="exit" type="exit" x="144" y="208">
   <properties>
    <property name="channel" value="0"/>
    <property name="id" value="exit_00"/>
   </properties>
   <point/>
  </object>
  <object id="12" name="barrier_02" type="barrier" x="224" y="16" width="16" height="48">
   <properties>
    <property name="channel" value="0"/>
    <property name="id" value="barrier_02"/>
   </properties>
  </object>
  <object id="16" name="barrier_01" type="barrier" x="128" y="64" width="16" height="48">
   <properties>
    <property name="channel" value="0"/>
    <property name="id" value="barrier_01"/>
    <property name="invert" value="1"/>
   </properties>
  </object>
 </objectgroup>
 <objectgroup id="3" name="meta">
  <object id="5" name="start" type="start" x="32" y="208">
   <point/>
  </object>
  <object id="9" name="zapper_01" type="zapper" x="16" y="176" width="96" height="16">
   <properties>
    <property name="channel" value="0"/>
    <property name="id" value="zapper_01"/>
   </properties>
  </object>
  <object id="11" name="button_01" type="button" x="96" y="224" width="16" height="16">
   <properties>
    <property name="channel" value="0"/>
    <property name="id" value="button_01"/>
   </properties>
  </object>
  <object id="14" name="edge_exit_01" type="edge_exit" x="240" y="16" width="16" height="48">
   <properties>
    <property name="id" value="edge_exit_01"/>
    <property name="to" value="room01"/>
   </properties>
  </object>
  <object id="15" name="edge_exit_02" type="edge_exit" x="240" y="192" width="16" height="48">
   <properties>
    <property name="id" value="edge_exit_02"/>
    <property name="to" value="room01"/>
   </properties>
  </object>
  <object id="17" name="fizzler_01" type="fizzler" x="176" y="192" width="16" height="48">
   <properties>
    <property name="id" value="fizzler_01"/>
   </properties>
  </object>
 </objectgroup>
</map>
