<?xml version="1.0" encoding="UTF-8"?>
<map version="1.8" tiledversion="1.8.2" orientation="orthogonal" renderorder="right-down" width="16" height="16" tilewidth="16" tileheight="16" infinite="0" backgroundcolor="#00ffff" nextlayerid="4" nextobjectid="15">
 <tileset firstgid="1" source="../../tiled/porthole.tsx"/>
 <layer id="1" name="Tile Layer 1" width="16" height="16">
  <data encoding="csv">
54,54,54,54,54,54,54,54,54,54,54,54,54,54,54,54,
54,54,54,54,54,54,54,54,54,54,54,54,54,54,54,54,
54,54,54,54,54,54,54,54,54,54,54,54,54,54,54,54,
54,54,54,54,54,54,54,54,54,54,54,54,54,54,54,54,
35,35,35,35,35,35,35,35,35,35,35,35,35,35,35,35,
1,1,1,1,1,1,1,1,1,1,1,55,1,1,1,1,
1,1,1,1,1,1,1,1,1,1,1,56,1,1,1,1,
1,1,1,1,1,1,1,1,1,1,1,56,1,1,1,1,
1,1,1,1,3,1,1,1,1,1,1,57,1,1,1,1,
33,33,33,33,33,33,33,33,33,33,33,33,33,33,33,33,
54,54,54,54,54,54,54,54,54,54,54,54,54,54,54,54,
54,54,54,54,54,54,54,54,54,54,54,54,54,54,54,54,
54,54,54,54,54,54,54,54,54,54,54,54,54,54,54,54,
54,54,54,54,54,54,54,54,54,54,54,54,54,54,54,54,
54,54,54,54,54,54,54,54,54,54,54,54,54,54,54,54,
54,54,54,54,54,54,54,54,54,54,54,54,54,54,54,54
</data>
 </layer>
 <objectgroup id="2" name="objects">
  <object id="12" name="barrier_00" type="barrier" x="176" y="80" width="16" height="64">
   <properties>
    <property name="channel" value="0"/>
    <property name="id" value="barrier_00"/>
   </properties>
  </object>
 </objectgroup>
 <objectgroup id="3" name="meta">
  <object id="9" name="button_00" type="button" x="64" y="128" width="16" height="16">
   <properties>
    <property name="channel" value="0"/>
    <property name="id" value="button_00"/>
   </properties>
  </object>
  <object id="13" name="edge_exit_04" type="edge_exit" x="0" y="80" width="16" height="64">
   <properties>
    <property name="id" value="edge_exit_04"/>
    <property name="to" value="room01"/>
   </properties>
  </object>
  <object id="14" name="edge_exit_05" type="edge_exit" x="240" y="80" width="16" height="64">
   <properties>
    <property name="id" value="edge_exit_05"/>
    <property name="to" value="room03"/>
   </properties>
  </object>
 </objectgroup>
</map>
