<?xml version="1.0" encoding="UTF-8"?>
<map version="1.8" tiledversion="1.8.2" orientation="orthogonal" renderorder="right-down" width="16" height="16" tilewidth="16" tileheight="16" infinite="0" backgroundcolor="#40ffff" nextlayerid="5" nextobjectid="17">
 <tileset firstgid="1" source="../../tiled/porthole.tsx"/>
 <layer id="1" name="tiles" width="16" height="16">
  <data encoding="csv">
35,35,35,35,35,35,35,35,35,35,35,35,35,35,35,43,
1,1,1,1,1,1,1,1,1,1,1,1,1,1,1,36,
1,1,1,1,1,1,1,1,1,1,1,1,1,1,1,36,
1,1,1,1,1,1,1,1,1,1,1,1,1,1,1,36,
33,37,1,1,1,1,1,1,1,1,1,1,1,1,1,36,
54,34,1,1,45,46,47,1,1,1,1,1,1,1,1,36,
54,34,1,1,1,1,1,1,1,1,1,1,1,1,1,36,
54,34,1,1,1,1,1,45,46,46,47,1,1,1,1,36,
54,34,1,1,1,1,1,1,1,1,1,1,1,1,1,36,
54,34,1,1,1,1,1,1,1,1,1,1,38,33,33,42,
54,34,1,1,1,1,1,1,1,1,1,1,36,54,54,54,
54,34,1,1,1,1,1,1,1,1,38,33,42,54,54,54,
35,40,1,1,1,1,1,1,1,1,36,54,54,54,54,54,
1,1,1,1,1,1,1,38,33,33,42,54,54,54,54,54,
1,1,1,1,1,1,1,36,54,54,54,54,54,54,54,54,
33,33,33,33,33,33,33,42,54,54,54,54,54,54,54,54
</data>
 </layer>
 <objectgroup id="2" name="meta">
  <object id="15" name="edge_exit_03" type="edge_exit" x="5.32907e-15" y="16" width="16" height="48">
   <properties>
    <property name="id" value="edge_exit_03"/>
    <property name="to" value="room00"/>
   </properties>
  </object>
  <object id="16" name="edge_exit_04" type="edge_exit" x="0" y="208" width="16" height="32">
   <properties>
    <property name="id" value="edge_exit_04"/>
    <property name="to" value="room00"/>
   </properties>
  </object>
 </objectgroup>
 <objectgroup id="3" name="objects"/>
</map>
