<?xml version="1.0" encoding="UTF-8"?>
<map version="1.8" tiledversion="1.8.2" orientation="orthogonal" renderorder="right-down" width="16" height="16" tilewidth="16" tileheight="16" infinite="0" backgroundcolor="#00ffff" nextlayerid="4" nextobjectid="16">
 <tileset firstgid="1" source="../../tiled/porthole.tsx"/>
 <layer id="1" name="Tile Layer 1" width="16" height="16">
  <data encoding="csv">
54,44,35,35,35,35,35,35,35,35,35,35,35,35,35,43,
54,34,1,1,1,1,1,1,1,1,1,1,1,1,1,36,
54,34,1,1,1,1,1,1,1,1,1,1,1,1,1,36,
54,34,1,1,1,1,1,1,1,1,1,1,1,1,1,36,
35,40,1,1,1,1,1,1,1,1,1,1,1,1,1,36,
1,1,1,1,1,1,1,1,1,1,1,1,1,1,1,36,
1,1,1,1,1,1,1,1,1,1,1,1,1,1,1,36,
1,1,1,1,1,1,1,1,1,1,1,1,1,1,1,36,
1,1,1,1,1,1,1,1,1,1,1,1,1,1,1,36,
33,33,37,1,1,1,1,1,1,1,1,1,1,1,1,36,
54,54,34,1,1,1,1,1,1,1,1,1,1,1,1,36,
54,54,41,33,33,37,1,1,1,1,1,1,1,1,1,36,
54,54,54,54,54,34,1,1,1,1,1,1,1,1,1,36,
54,54,54,54,54,41,33,33,37,1,1,1,1,4,5,54,
54,54,54,54,54,54,54,54,34,1,3,1,1,6,7,54,
54,54,54,54,54,54,54,54,54,54,54,54,54,54,54,54
</data>
 </layer>
 <objectgroup id="2" name="objects">
  <object id="9" name="exit" type="exit" x="208" y="208">
   <properties>
    <property name="channel" value="1"/>
    <property name="id" value="exit_00"/>
   </properties>
   <point/>
  </object>
 </objectgroup>
 <objectgroup id="3" name="meta">
  <object id="14" name="button_01" type="button" x="160" y="224" width="16" height="16">
   <properties>
    <property name="channel" value="1"/>
    <property name="id" value="button_01"/>
   </properties>
  </object>
  <object id="15" name="edge_exit_06" type="edge_exit" x="0" y="80" width="16" height="64">
   <properties>
    <property name="id" value="edge_exit_06"/>
    <property name="to" value="room02"/>
   </properties>
  </object>
 </objectgroup>
</map>
