<?xml version="1.0" encoding="UTF-8"?>
<map version="1.8" tiledversion="1.8.2" orientation="orthogonal" renderorder="right-down" width="16" height="16" tilewidth="16" tileheight="16" infinite="0" backgroundcolor="#00ffff" nextlayerid="4" nextobjectid="12">
 <tileset firstgid="1" source="../../tiled/porthole.tsx"/>
 <layer id="1" name="Tile Layer 1" width="16" height="16">
  <data encoding="csv">
35,35,35,35,35,35,35,35,35,35,35,35,35,35,35,43,
1,1,1,1,1,1,1,1,1,1,1,1,1,1,1,36,
1,1,1,1,1,1,1,1,1,1,1,1,1,1,1,36,
1,1,1,1,1,1,1,1,1,1,1,1,1,1,1,36,
33,33,33,33,33,33,33,33,33,33,33,37,1,1,1,36,
44,35,35,35,35,35,35,35,35,35,35,40,1,1,1,36,
34,1,1,1,1,1,1,1,1,1,1,1,1,1,1,36,
34,1,1,1,1,1,1,1,1,1,1,1,1,1,1,36,
34,1,1,1,1,1,1,1,1,1,1,1,1,1,1,36,
34,1,1,1,1,1,1,1,1,1,1,1,1,1,1,36,
34,1,1,1,45,46,46,48,49,46,46,46,47,1,1,36,
34,1,1,1,1,1,1,36,34,1,1,1,1,1,1,36,
34,1,1,1,1,1,1,36,34,1,1,1,1,1,1,36,
34,1,1,1,1,1,1,36,34,1,1,1,1,1,1,36,
34,1,1,1,1,1,1,36,34,12,12,12,12,12,12,36,
41,33,33,37,1,1,1,36,54,54,54,54,54,54,54,54
</data>
 </layer>
 <objectgroup id="2" name="objects"/>
 <objectgroup id="3" name="meta">
  <object id="9" name="edge_exit_08" type="edge_exit" x="0" y="16" width="16" height="48">
   <properties>
    <property name="id" value="edge_exit_08"/>
    <property name="to" value="room02"/>
   </properties>
  </object>
  <object id="10" name="edge_exit_07" type="edge_exit" x="64" y="240" width="48" height="16">
   <properties>
    <property name="id" value="edge_exit_07"/>
    <property name="to" value="room04"/>
   </properties>
  </object>
 </objectgroup>
</map>
