<?xml version="1.0" encoding="UTF-8"?>
<map version="1.8" tiledversion="1.8.2" orientation="orthogonal" renderorder="right-down" width="16" height="16" tilewidth="16" tileheight="16" infinite="0" backgroundcolor="#00ffff" nextlayerid="4" nextobjectid="12">
 <tileset firstgid="1" source="../../tiled/porthole.tsx"/>
 <layer id="1" name="Tile Layer 1" width="16" height="16">
  <data encoding="csv">
54,1,1,1,54,54,54,54,54,54,54,54,54,54,54,54,
54,1,1,1,39,54,54,54,54,54,54,54,54,54,54,54,
54,1,1,1,1,1,1,1,1,1,54,54,54,54,54,54,
54,1,1,1,1,1,1,1,1,1,54,54,54,54,54,54,
54,1,1,1,1,1,1,1,1,1,39,35,35,54,54,54,
54,33,33,33,33,33,37,1,1,1,1,1,1,36,54,54,
54,54,54,54,54,54,54,1,1,1,1,1,1,36,54,54,
54,54,54,54,54,54,40,1,1,1,1,1,1,36,54,54,
54,54,54,1,1,1,1,1,1,1,38,50,51,54,54,54,
54,54,54,1,1,1,1,1,1,1,54,54,54,54,54,54,
54,54,54,1,1,1,1,1,1,1,54,54,54,54,54,54,
54,54,54,33,33,33,37,1,1,1,54,54,54,54,54,54,
54,54,54,54,54,54,54,1,1,1,39,54,54,54,54,54,
54,54,54,54,54,54,54,1,1,1,1,1,1,1,1,1,
54,54,54,54,54,54,54,1,1,1,1,1,1,1,1,1,
54,54,54,54,54,54,54,33,33,33,33,33,33,33,33,33
</data>
 </layer>
 <objectgroup id="2" name="objects">
  <object id="11" name="pad_01" type="pad" x="176" y="128" width="32" height="16">
   <properties>
    <property name="channel" value="1"/>
    <property name="id" value="pad_01"/>
   </properties>
  </object>
 </objectgroup>
 <objectgroup id="3" name="meta">
  <object id="9" name="edge_exit_15" type="edge_exit" x="240" y="208" width="16" height="32">
   <properties>
    <property name="id" value="edge_exit_15"/>
    <property name="to" value="room06"/>
   </properties>
  </object>
  <object id="10" name="edge_exit_16" type="edge_exit" x="16" y="0" width="48" height="16">
   <properties>
    <property name="id" value="edge_exit_16"/>
    <property name="to" value="room08"/>
   </properties>
  </object>
 </objectgroup>
</map>
