<?xml version="1.0" encoding="UTF-8"?>
<map version="1.8" tiledversion="1.8.2" orientation="orthogonal" renderorder="right-down" width="16" height="16" tilewidth="16" tileheight="16" infinite="0" backgroundcolor="#00ffff" nextlayerid="4" nextobjectid="14">
 <tileset firstgid="1" source="../../tiled/porthole.tsx"/>
 <layer id="1" name="Tile Layer 1" width="16" height="16">
  <data encoding="csv">
44,35,35,35,54,35,35,35,43,54,54,44,35,35,35,54,
34,1,1,1,55,1,1,1,36,54,54,34,1,1,1,54,
34,1,1,1,56,1,1,1,39,43,54,34,1,1,1,54,
34,1,1,1,57,1,1,1,1,39,35,43,50,51,1,54,
34,1,1,38,54,37,1,1,1,1,1,39,35,40,1,54,
34,1,1,36,54,34,1,1,1,1,1,1,1,1,1,54,
34,1,1,36,54,41,33,33,37,1,1,1,1,1,1,54,
34,1,1,36,54,54,54,54,41,33,33,33,33,33,33,54,
34,1,1,36,44,35,35,35,35,35,35,35,35,35,35,35,
34,1,1,36,34,1,1,1,1,1,1,1,1,1,1,1,
34,1,1,36,34,1,1,1,1,1,1,1,1,1,1,1,
34,1,1,36,41,33,37,1,38,33,33,33,33,33,33,33,
34,1,1,39,35,35,40,1,39,35,35,35,35,35,35,54,
34,1,1,1,1,1,1,1,1,1,1,1,1,1,1,54,
34,1,1,1,1,1,1,1,1,1,1,1,1,1,1,54,
41,33,33,33,33,33,33,33,33,33,33,33,37,1,1,54
</data>
 </layer>
 <objectgroup id="2" name="objects">
  <object id="11" name="pad_1" type="pad" x="192" y="48" width="32" height="16">
   <properties>
    <property name="channel" value="1"/>
    <property name="id" value="pad_1"/>
   </properties>
  </object>
  <object id="12" name="barrier_1" type="barrier" x="64" y="16" width="16" height="48">
   <properties>
    <property name="channel" value="2"/>
    <property name="id" value="barrier_1"/>
   </properties>
  </object>
 </objectgroup>
 <objectgroup id="3" name="meta">
  <object id="9" name="edge_exit_03" type="edge_exit" x="240" y="144" width="16" height="32">
   <properties>
    <property name="id" value="edge_exit_03"/>
    <property name="to" value="room02"/>
   </properties>
  </object>
  <object id="10" name="edge_exit_02" type="edge_exit" x="208" y="240" width="32" height="16">
   <properties>
    <property name="id" value="edge_exit_02"/>
    <property name="to" value="room00"/>
   </properties>
  </object>
 </objectgroup>
</map>
