<?xml version="1.0" encoding="UTF-8"?>
<map version="1.8" tiledversion="1.8.2" orientation="orthogonal" renderorder="right-down" width="16" height="16" tilewidth="16" tileheight="16" infinite="0" backgroundcolor="#00ffff" nextlayerid="4" nextobjectid="15">
 <tileset firstgid="1" source="../../tiled/porthole.tsx"/>
 <layer id="1" name="Tile Layer 1" width="16" height="16">
  <data encoding="csv">
54,54,54,54,54,54,54,54,54,54,54,54,40,1,1,54,
34,1,1,1,1,13,1,1,1,1,1,1,1,1,1,54,
34,1,1,1,1,14,1,1,1,1,1,1,1,1,1,54,
34,1,1,1,1,14,1,1,1,1,1,1,1,1,1,54,
34,1,1,1,38,54,54,54,54,37,1,1,1,1,1,54,
34,1,1,1,39,54,54,54,54,54,1,1,38,33,33,54,
41,33,37,1,1,1,36,54,54,54,1,1,54,54,54,54,
54,54,34,1,1,1,39,35,35,40,1,1,54,54,54,54,
44,35,40,1,1,1,1,55,1,1,1,1,54,54,54,54,
34,1,1,1,1,1,1,56,1,1,1,1,54,54,54,54,
34,1,1,1,1,1,1,57,1,1,1,1,54,54,54,54,
34,1,1,38,50,51,33,33,33,37,1,1,54,54,54,54,
34,1,1,39,54,54,54,54,54,54,1,1,54,54,54,54,
34,1,1,1,13,1,4,5,54,54,1,1,54,54,54,54,
34,1,1,1,14,1,6,7,54,54,33,33,54,54,54,54,
54,54,54,54,54,54,54,54,54,54,54,54,54,54,54,54
</data>
 </layer>
 <objectgroup id="2" name="objects">
  <object id="10" name="exit_00" type="exit" x="96" y="208">
   <properties>
    <property name="channel" value="0"/>
    <property name="id" value="exit_00"/>
   </properties>
   <point/>
  </object>
  <object id="11" name="pad_0" type="pad" x="64" y="176" width="32" height="16">
   <properties>
    <property name="channel" value="0"/>
    <property name="id" value="pad_0"/>
   </properties>
  </object>
  <object id="12" name="barrier_0" type="barrier" x="112" y="128" width="16" height="48">
   <properties>
    <property name="channel" value="1"/>
    <property name="id" value="barrer_0"/>
   </properties>
  </object>
 </objectgroup>
 <objectgroup id="3" name="meta">
  <object id="5" name="start" type="start" x="16" y="64">
   <point/>
  </object>
  <object id="9" name="edge_exit_01" type="edge_exit" x="208" y="0" width="32" height="16">
   <properties>
    <property name="id" value="edge_exit_01"/>
    <property name="to" value="room01"/>
   </properties>
  </object>
  <object id="13" name="fizzler_0" type="fizzler" x="80" y="16" width="16" height="48"/>
  <object id="14" name="fizzler_1" type="fizzler" x="64" y="208" width="16" height="32"/>
 </objectgroup>
</map>
