<?xml version="1.0" encoding="UTF-8"?>
<map version="1.8" tiledversion="1.8.2" orientation="orthogonal" renderorder="right-down" width="16" height="16" tilewidth="16" tileheight="16" infinite="0" backgroundcolor="#00ffff" nextlayerid="4" nextobjectid="12">
 <tileset firstgid="1" source="../../tiled/porthole.tsx"/>
 <layer id="1" name="Tile Layer 1" width="16" height="16">
  <data encoding="csv">
34,1,1,36,54,54,54,54,54,54,54,54,54,54,54,54,
34,1,1,36,54,54,54,54,54,54,54,54,54,54,54,54,
34,1,1,36,54,54,54,54,54,54,54,54,54,54,54,54,
34,1,1,39,35,35,35,35,35,35,35,35,35,35,35,43,
34,1,1,1,1,1,1,1,1,1,1,1,1,1,1,36,
34,1,1,1,1,1,1,1,1,1,1,1,1,1,1,36,
34,1,1,1,1,1,1,1,1,1,1,1,1,1,1,36,
41,33,33,33,33,33,33,33,33,33,33,37,1,1,1,36,
44,35,35,35,35,54,35,35,35,35,43,34,1,1,1,36,
34,1,1,1,1,15,1,1,1,1,36,34,1,1,1,36,
34,1,1,1,1,1,1,1,1,1,36,34,1,1,1,36,
34,1,1,1,1,1,1,1,1,1,39,40,1,1,1,36,
34,1,1,45,48,49,46,47,1,1,1,1,1,1,1,36,
34,1,1,1,36,34,1,1,1,1,1,1,1,1,1,36,
34,1,1,1,36,34,2,1,1,1,1,1,1,1,1,36,
54,12,12,12,54,54,54,33,33,33,33,33,33,33,33,42
</data>
 </layer>
 <objectgroup id="2" name="objects">
  <object id="11" name="spawner_2" type="spawner" x="80" y="144">
   <properties>
    <property name="channel" value="5"/>
    <property name="id" value="spawner_2"/>
   </properties>
   <point/>
  </object>
 </objectgroup>
 <objectgroup id="3" name="meta">
  <object id="9" name="edge_exit_10" type="edge_exit" x="16" y="0" width="32" height="16">
   <properties>
    <property name="id" value="edge_exit_10"/>
    <property name="to" value="room02"/>
   </properties>
  </object>
  <object id="10" name="button_2" type="button" x="96" y="224" width="16" height="16">
   <properties>
    <property name="channel" value="5"/>
    <property name="id" value="button_2"/>
   </properties>
  </object>
 </objectgroup>
</map>
