<?xml version="1.0" encoding="UTF-8"?>
<map version="1.8" tiledversion="1.8.2" orientation="orthogonal" renderorder="right-down" width="16" height="16" tilewidth="16" tileheight="16" infinite="0" nextlayerid="4" nextobjectid="12">
 <tileset firstgid="1" source="../../tiled/porthole.tsx"/>
 <layer id="1" name="Tile Layer 1" width="16" height="16">
  <data encoding="csv">
35,35,35,35,35,35,35,35,35,35,35,35,35,35,35,43,
1,1,1,1,1,1,1,1,1,1,1,1,1,1,1,36,
1,0,0,0,0,0,0,0,0,0,0,0,1,0,1,36,
1,0,0,0,0,0,0,0,0,0,0,0,0,1,1,36,
33,37,0,0,0,0,0,38,33,33,33,33,33,33,33,42,
54,34,0,0,0,0,0,36,54,54,54,54,54,54,54,54,
54,34,1,0,0,0,0,36,54,54,54,54,54,54,54,54,
54,34,1,0,0,0,0,36,54,54,54,54,54,54,54,54,
54,34,1,0,0,0,0,36,54,54,54,54,54,54,54,54,
54,34,1,0,0,0,0,39,54,54,54,54,54,54,54,54,
54,34,0,0,0,0,0,0,1,1,1,1,1,1,1,36,
54,34,0,0,0,0,0,0,1,1,1,1,1,1,1,36,
54,34,1,0,0,0,0,0,1,1,1,1,2,1,1,36,
54,34,1,1,1,1,1,38,54,54,54,54,54,54,54,54,
54,34,1,1,1,1,1,36,54,54,54,54,54,54,54,54,
54,34,1,1,1,1,1,36,54,54,54,54,54,54,54,54
</data>
 </layer>
 <objectgroup id="2" name="objects"/>
 <objectgroup id="3" name="meta">
  <object id="9" name="edge_exit_11" type="edge_exit" x="0" y="16" width="16" height="48">
   <properties>
    <property name="id" value="edge_exit_11"/>
    <property name="to" value="room03"/>
   </properties>
  </object>
  <object id="10" name="edge_exit_12" type="edge_exit" x="32" y="240" width="80" height="16">
   <properties>
    <property name="id" value="edge_exit_12"/>
    <property name="to" value="room05"/>
   </properties>
  </object>
  <object id="11" name="button_01" type="button" x="192" y="192" width="16" height="16">
   <properties>
    <property name="channel" value="0"/>
    <property name="id" value="button_01"/>
   </properties>
  </object>
 </objectgroup>
</map>
