<?xml version="1.0" encoding="UTF-8"?>
<map version="1.8" tiledversion="1.8.2" orientation="orthogonal" renderorder="right-down" width="16" height="16" tilewidth="16" tileheight="16" infinite="0" backgroundcolor="#00ffff" nextlayerid="4" nextobjectid="13">
 <tileset firstgid="1" source="../../tiled/porthole.tsx"/>
 <layer id="1" name="Tile Layer 1" width="16" height="16">
  <data encoding="csv">
34,1,1,1,1,1,1,36,34,1,1,1,1,1,1,36,
34,1,1,1,1,1,1,36,34,1,1,1,1,1,1,36,
34,0,0,0,0,0,0,36,34,1,0,0,1,0,1,36,
34,0,0,0,0,0,0,36,34,1,0,1,0,1,1,36,
34,0,0,0,0,1,1,36,34,0,0,0,1,1,1,36,
34,1,0,38,33,33,33,42,34,1,0,0,1,1,1,36,
34,1,1,39,35,35,35,43,34,1,1,1,1,1,1,36,
34,1,1,0,0,1,1,36,34,1,1,1,1,1,1,36,
34,0,1,0,1,0,0,36,34,1,1,1,1,1,1,36,
34,1,1,1,1,0,0,36,34,1,1,1,1,1,1,36,
34,1,0,0,0,0,0,36,34,1,1,1,2,1,1,36,
34,1,0,0,0,0,0,36,34,1,1,38,54,54,54,54,
34,1,1,0,0,0,0,36,34,1,1,39,54,54,54,54,
34,1,1,1,1,1,1,36,34,1,1,1,13,4,5,54,
34,1,1,1,1,1,1,36,34,1,1,1,14,6,7,54,
41,33,33,33,33,33,33,42,41,33,33,33,54,54,54,54
</data>
 </layer>
 <objectgroup id="2" name="objects">
  <object id="3" name="exit" type="exit" x="208" y="208">
   <properties>
    <property name="channel" value="2"/>
    <property name="id" value="exit_00"/>
   </properties>
   <point/>
  </object>
 </objectgroup>
 <objectgroup id="3" name="meta">
  <object id="5" name="start" type="start" x="32" y="208">
   <point/>
  </object>
  <object id="9" name="edge_exit_02" type="edge_exit" x="16" y="0" width="96" height="16">
   <properties>
    <property name="id" value="edge_exit_02"/>
    <property name="to" value="room01"/>
   </properties>
  </object>
  <object id="10" name="edge_exit_01" type="edge_exit" x="144" y="0" width="96" height="16">
   <properties>
    <property name="id" value="edge_exit_01"/>
    <property name="to" value="room01"/>
   </properties>
  </object>
  <object id="12" name="button_02" type="button" x="192" y="160" width="16" height="16">
   <properties>
    <property name="channel" value="2"/>
    <property name="id" value="button_02"/>
   </properties>
  </object>
 </objectgroup>
</map>
