<?xml version="1.0" encoding="UTF-8"?>
<map version="1.8" tiledversion="1.8.2" orientation="orthogonal" renderorder="right-down" width="16" height="16" tilewidth="16" tileheight="16" infinite="0" nextlayerid="4" nextobjectid="15">
 <tileset firstgid="1" source="../../tiled/porthole.tsx"/>
 <layer id="1" name="Tile Layer 1" width="16" height="16">
  <data encoding="csv">
44,35,35,35,35,35,35,35,43,34,1,1,1,1,1,36,
34,1,1,1,1,1,1,1,36,34,1,1,1,1,1,36,
34,1,1,1,1,1,1,1,36,34,1,1,1,1,1,36,
34,1,1,1,1,1,1,1,36,34,1,1,1,1,1,36,
34,1,1,1,1,1,1,1,36,34,1,1,1,1,1,36,
41,33,33,33,33,33,33,33,42,34,1,1,1,1,1,36,
44,35,35,35,35,35,54,35,43,34,1,1,1,1,1,36,
34,1,1,1,1,1,15,1,36,34,1,1,1,1,1,36,
34,1,1,1,1,1,1,1,36,34,1,1,1,1,1,36,
34,1,1,1,1,1,1,1,36,34,1,1,1,1,1,36,
34,1,1,38,33,33,33,33,42,34,1,1,1,1,1,36,
34,1,1,39,35,35,35,35,35,40,1,1,1,1,1,39,
34,1,1,1,1,1,1,1,1,1,1,1,1,1,1,1,
34,1,1,1,1,1,1,1,1,1,1,1,1,1,1,1,
34,1,1,1,1,1,1,1,1,1,1,1,1,1,1,1,
41,33,33,33,33,33,33,33,33,33,33,33,33,33,33,33
</data>
 </layer>
 <objectgroup id="2" name="objects">
  <object id="14" name="spawner" type="spawner" x="96" y="112">
   <properties>
    <property name="channel" value="2"/>
    <property name="id" value="spawner"/>
   </properties>
   <point/>
  </object>
 </objectgroup>
 <objectgroup id="3" name="meta">
  <object id="10" name="edge_exit_03" type="edge_exit" x="160" y="0" width="80" height="16">
   <properties>
    <property name="id" value="edge_exit_03"/>
    <property name="to" value="room00"/>
   </properties>
  </object>
  <object id="13" name="edge_exit_04" type="edge_exit" x="240" y="192" width="16" height="48">
   <properties>
    <property name="id" value="edge_exit_04"/>
    <property name="to" value="room02"/>
   </properties>
  </object>
 </objectgroup>
</map>
