<?xml version="1.0" encoding="UTF-8"?>
<map version="1.8" tiledversion="1.8.2" orientation="orthogonal" renderorder="right-down" width="16" height="16" tilewidth="16" tileheight="16" infinite="0" backgroundcolor="#00ffff" nextlayerid="4" nextobjectid="15">
 <tileset firstgid="1" source="../../tiled/porthole.tsx"/>
 <layer id="1" name="Tile Layer 1" width="16" height="16">
  <data encoding="csv">
44,35,35,35,35,35,35,35,35,35,35,35,35,35,35,35,
34,1,1,1,1,1,1,1,1,1,1,1,1,1,1,1,
34,1,1,1,1,1,1,1,1,1,1,1,1,1,1,1,
34,1,1,1,1,1,1,1,1,1,1,1,1,1,1,1,
34,1,1,1,1,38,33,33,33,33,33,33,33,33,33,33,
34,1,1,1,1,39,35,35,35,35,35,35,35,35,35,43,
34,1,1,1,1,1,1,1,1,1,1,1,1,1,1,54,
34,17,17,17,17,17,17,17,17,17,17,17,17,17,25,54,
34,1,1,1,1,1,1,1,1,1,1,1,1,1,1,54,
41,33,33,33,33,33,33,33,33,33,33,33,33,33,33,42,
44,35,35,35,35,35,35,35,35,35,35,35,35,35,35,35,
34,1,1,1,1,1,1,1,1,1,1,1,1,1,1,1,
34,20,1,1,1,1,1,1,1,1,1,1,1,1,1,1,
34,1,1,1,1,1,1,1,1,1,1,1,1,1,1,1,
34,1,1,1,38,33,33,33,33,33,33,33,33,33,33,33,
34,1,1,1,36,54,54,54,54,54,54,54,54,54,54,54
</data>
 </layer>
 <objectgroup id="2" name="objects"/>
 <objectgroup id="3" name="meta">
  <object id="9" name="edge_exit_12" type="edge_exit" x="16" y="240" width="48" height="16">
   <properties>
    <property name="id" value="edge_exit_12"/>
    <property name="to" value="room00"/>
   </properties>
  </object>
  <object id="10" name="edge_exit_14" type="edge_exit" x="240" y="16" width="16" height="48">
   <properties>
    <property name="id" value="edge_exit_14"/>
    <property name="to" value="room06"/>
   </properties>
  </object>
  <object id="11" name="edge_exit_13" type="edge_exit" x="240" y="176" width="16" height="48">
   <properties>
    <property name="id" value="edge_exit_13"/>
    <property name="to" value="room06"/>
   </properties>
  </object>
  <object id="12" name="laser_00" type="laser" x="0" y="112" width="16" height="16">
   <properties>
    <property name="dir" value="left"/>
    <property name="id" value="laser_00"/>
   </properties>
  </object>
  <object id="14" name="target__01" type="target" x="16" y="192" width="16" height="16">
   <properties>
    <property name="channel" value="3"/>
    <property name="id" value="target_01"/>
   </properties>
  </object>
 </objectgroup>
</map>
