<?xml version="1.0" encoding="UTF-8"?>
<map version="1.8" tiledversion="1.8.2" orientation="orthogonal" renderorder="right-down" width="16" height="16" tilewidth="16" tileheight="16" infinite="0" backgroundcolor="#00ffff" nextlayerid="4" nextobjectid="15">
 <tileset firstgid="1" source="../../tiled/porthole.tsx"/>
 <layer id="1" name="Tile Layer 1" width="16" height="16">
  <data encoding="csv">
54,54,54,35,35,35,35,35,35,35,35,35,35,35,35,43,
1,1,55,1,1,1,1,1,1,1,1,1,1,1,1,36,
1,1,56,1,1,1,1,1,1,1,1,1,1,1,1,36,
1,1,57,1,1,1,1,1,1,1,1,1,1,1,1,36,
54,54,54,37,1,1,1,1,1,1,1,1,1,1,1,36,
54,54,54,34,1,1,1,1,1,1,1,1,1,1,1,36,
54,54,54,34,1,1,1,1,1,1,1,1,1,1,1,36,
54,54,54,34,1,1,1,1,1,1,1,1,1,1,1,36,
54,54,54,34,1,1,1,38,50,51,37,1,1,1,1,36,
54,54,54,34,1,1,1,36,54,54,34,1,1,1,1,36,
35,35,35,40,1,1,1,36,54,54,34,1,1,1,1,36,
1,1,1,1,1,1,1,36,54,54,34,1,1,1,1,36,
1,1,1,1,1,1,1,36,54,54,34,1,1,1,1,36,
1,1,1,1,1,1,1,36,54,54,34,1,1,1,1,36,
33,33,33,33,33,33,33,42,54,54,41,33,33,33,33,42,
54,54,54,54,54,54,54,54,54,54,54,54,54,54,54,54
</data>
 </layer>
 <objectgroup id="2" name="objects">
  <object id="11" name="pad_02" type="pad" x="128" y="128" width="32" height="16">
   <properties>
    <property name="channel" value="4"/>
    <property name="id" value="pad_02"/>
   </properties>
  </object>
  <object id="12" name="barrier_04" type="barrier" x="32" y="16" width="16" height="48">
   <properties>
    <property name="channel" value="4"/>
    <property name="id" value="barrier_04"/>
   </properties>
  </object>
 </objectgroup>
 <objectgroup id="3" name="meta">
  <object id="9" name="edge_exit_16" type="edge_exit" x="0" y="16" width="16" height="48">
   <properties>
    <property name="id" value="edge_exit_16"/>
    <property name="to" value="room05"/>
   </properties>
  </object>
  <object id="10" name="edge_exit_15" type="edge_exit" x="0" y="176" width="16" height="48">
   <properties>
    <property name="id" value="edge_exit_15"/>
    <property name="to" value="room05"/>
   </properties>
  </object>
 </objectgroup>
</map>
