<?xml version="1.0" encoding="UTF-8"?>
<map version="1.8" tiledversion="1.8.2" orientation="orthogonal" renderorder="right-down" width="16" height="16" tilewidth="16" tileheight="16" infinite="0" backgroundcolor="#00ffff" nextlayerid="4" nextobjectid="13">
 <tileset firstgid="1" source="../../tiled/porthole.tsx"/>
 <layer id="1" name="Tile Layer 1" width="16" height="16">
  <data encoding="csv">
54,54,54,54,54,54,54,54,54,54,54,54,54,54,54,54,
44,35,35,35,35,35,35,35,35,35,35,35,35,35,35,35,
34,1,1,1,1,1,1,1,1,1,1,1,1,1,1,1,
34,1,1,1,1,1,1,1,1,1,1,1,1,1,1,1,
34,1,1,1,1,1,1,1,1,1,1,1,1,1,1,1,
34,1,1,1,38,33,33,33,33,33,33,33,33,33,33,33,
34,1,1,1,39,54,54,54,54,54,35,35,35,35,43,54,
34,1,1,1,1,1,13,4,5,13,1,1,1,1,36,54,
34,1,1,1,1,1,14,6,7,14,1,1,1,1,36,54,
34,1,1,1,1,45,46,48,49,46,47,1,1,1,36,54,
34,1,1,1,1,1,1,36,34,1,1,1,1,1,36,54,
34,1,1,1,1,1,1,36,34,1,1,1,1,1,36,54,
34,1,1,1,1,1,1,36,34,1,1,1,1,1,36,54,
34,1,1,1,1,1,1,36,34,1,1,1,1,1,36,54,
41,33,33,33,33,33,33,42,41,12,12,12,12,12,42,54,
54,54,54,54,54,54,54,54,54,54,54,50,51,54,54,54
</data>
 </layer>
 <objectgroup id="2" name="objects">
  <object id="9" name="exit" type="exit" x="112" y="112">
   <properties>
    <property name="channel" value="5"/>
    <property name="id" value="exit"/>
   </properties>
   <point/>
  </object>
  <object id="10" name="pad_3" type="pad" x="176" y="240" width="32" height="16">
   <properties>
    <property name="channel" value="5"/>
    <property name="id" value="pad_3"/>
   </properties>
  </object>
 </objectgroup>
 <objectgroup id="3" name="meta">
  <object id="12" name="edge_exit_20" type="edge_exit" x="240" y="32" width="16" height="48">
   <properties>
    <property name="id" value="edge_exit_20"/>
    <property name="to" value="room07"/>
   </properties>
  </object>
 </objectgroup>
</map>
