<?xml version="1.0" encoding="UTF-8"?>
<map version="1.8" tiledversion="1.8.2" orientation="orthogonal" renderorder="right-down" width="16" height="16" tilewidth="16" tileheight="16" infinite="0" backgroundcolor="#00ffff" nextlayerid="4" nextobjectid="11">
 <tileset firstgid="1" source="../../tiled/porthole.tsx"/>
 <layer id="1" name="Tile Layer 1" width="16" height="16">
  <data encoding="csv">
54,54,54,54,54,54,54,54,54,54,54,54,54,54,54,54,
54,54,54,54,54,54,54,54,54,54,54,54,54,54,54,54,
54,54,1,1,1,1,1,1,1,1,1,1,54,54,54,54,
54,54,1,1,0,0,0,0,0,0,0,0,54,54,54,54,
54,54,1,1,1,1,1,1,1,1,1,1,54,54,54,54,
54,54,1,1,1,1,1,1,1,1,1,1,54,54,54,54,
54,54,1,1,1,1,1,1,1,1,1,1,39,35,35,35,
54,54,54,54,54,54,37,1,1,1,1,1,1,1,1,1,
54,54,54,54,54,54,54,1,1,1,1,1,1,1,1,1,
54,54,54,54,54,54,54,1,1,1,1,1,1,1,1,1,
54,54,54,54,54,54,40,1,1,1,1,1,1,1,1,1,
54,54,1,1,1,1,1,1,1,1,1,1,38,54,54,54,
54,54,24,17,17,17,17,17,17,17,17,17,36,54,54,54,
54,54,4,5,1,1,1,1,1,1,1,1,36,54,54,54,
54,54,6,7,1,1,1,1,1,1,1,1,36,54,54,54,
54,54,54,54,54,54,54,54,54,54,54,54,54,54,54,54
</data>
 </layer>
 <objectgroup id="2" name="objects">
  <object id="3" name="exit" type="exit" x="32" y="208">
   <properties>
    <property name="channel" value="0"/>
    <property name="id" value="exit_00"/>
   </properties>
   <point/>
  </object>
 </objectgroup>
 <objectgroup id="3" name="meta">
  <object id="5" name="start" type="start" x="112" y="208">
   <point/>
  </object>
  <object id="9" name="edge_exit_00" type="edge_exit" x="240" y="112" width="16" height="64">
   <properties>
    <property name="id" value="edge_exit_00"/>
    <property name="to" value="room01"/>
   </properties>
  </object>
  <object id="10" name="laser_00" type="laser" x="192" y="192" width="16" height="16">
   <properties>
    <property name="channel" value="1"/>
    <property name="dir" value="right"/>
    <property name="id" value="laser_00"/>
   </properties>
  </object>
 </objectgroup>
</map>
