<?xml version="1.0" encoding="UTF-8"?>
<map version="1.8" tiledversion="1.8.2" orientation="orthogonal" renderorder="right-down" width="16" height="16" tilewidth="16" tileheight="16" infinite="0" backgroundcolor="#40ffff" nextlayerid="5" nextobjectid="29">
 <tileset firstgid="1" source="../../tiled/porthole.tsx"/>
 <layer id="1" name="tiles" width="16" height="16">
  <data encoding="csv">
44,35,35,35,35,35,35,35,35,35,35,35,54,54,54,54,
34,1,1,1,1,1,1,1,1,55,1,1,1,1,1,54,
34,1,1,1,1,1,1,1,1,56,1,1,1,1,1,54,
41,37,1,38,33,33,33,33,33,33,33,33,37,1,1,54,
54,40,1,39,35,35,35,35,35,35,35,43,54,1,1,54,
1,1,1,1,1,1,13,1,1,1,1,36,54,1,1,54,
1,1,1,1,1,1,14,1,1,1,1,36,54,1,1,54,
33,33,33,33,33,33,33,33,37,1,1,36,54,1,1,54,
35,35,35,35,35,35,35,35,40,1,1,36,54,1,1,54,
1,1,1,1,1,1,1,1,1,1,1,36,54,1,1,54,
1,1,1,1,1,1,1,1,1,1,1,36,54,1,1,54,
33,37,1,38,33,33,33,33,33,33,33,42,54,1,1,54,
44,40,1,39,35,35,35,35,35,35,35,35,40,1,1,54,
34,1,1,1,1,1,1,1,1,1,1,1,1,1,1,54,
34,1,1,1,1,1,1,1,1,2,1,1,1,1,1,54,
41,33,33,33,33,33,33,33,33,33,33,33,33,33,33,42
</data>
 </layer>
 <objectgroup id="2" name="meta">
  <object id="24" name="edge_exit_3" type="edge_exit" x="0" y="80" width="16" height="32">
   <properties>
    <property name="id" value="edge_exit_3"/>
    <property name="to" value="room00"/>
   </properties>
  </object>
  <object id="25" name="edge_exit_4" type="edge_exit" x="0" y="144" width="16" height="32">
   <properties>
    <property name="id" value="edge_exit_4"/>
    <property name="to" value="room00"/>
   </properties>
  </object>
  <object id="26" name="fizzler_02" type="fizzler" x="96" y="80" width="16" height="32">
   <properties>
    <property name="channel" value="0"/>
   </properties>
  </object>
  <object id="27" name="button_0" type="button" x="144" y="224" width="16" height="16">
   <properties>
    <property name="channel" value="1"/>
    <property name="id" value="button_0"/>
   </properties>
  </object>
 </objectgroup>
 <objectgroup id="3" name="objects">
  <object id="28" name="barrier_0" type="barrier" x="144" y="16">
   <properties>
    <property name="channel" value="1"/>
    <property name="id" value="barrier_0"/>
   </properties>
   <point/>
  </object>
 </objectgroup>
</map>
