<?xml version="1.0" encoding="UTF-8"?>
<map version="1.8" tiledversion="1.8.2" orientation="orthogonal" renderorder="right-down" width="16" height="16" tilewidth="16" tileheight="16" infinite="0" nextlayerid="4" nextobjectid="12">
 <tileset firstgid="1" source="../../tiled/porthole.tsx"/>
 <layer id="1" name="Tile Layer 1" width="16" height="16">
  <data encoding="csv">
34,1,1,1,39,54,54,54,54,54,54,54,54,54,54,54,
34,1,1,1,1,1,1,1,1,1,1,1,1,1,1,1,
34,0,0,0,0,0,0,0,0,0,0,0,1,0,1,1,
34,0,0,0,0,0,0,0,0,0,0,0,0,1,1,1,
34,0,0,0,0,0,0,0,0,0,0,0,1,1,1,1,
41,33,33,33,33,33,33,33,33,33,33,37,1,1,38,33,
54,54,54,54,54,54,54,54,54,54,54,34,1,1,36,54,
44,35,35,35,35,35,35,35,35,35,35,40,1,1,36,54,
34,0,1,0,0,0,0,1,1,1,1,1,1,1,36,54,
34,1,1,0,0,0,0,0,1,1,1,1,1,1,36,54,
34,1,0,0,0,0,0,0,1,1,1,1,1,1,39,35,
34,1,0,0,0,0,0,0,1,1,1,1,1,1,1,1,
34,1,1,0,0,0,0,0,1,1,1,1,1,1,1,1,
34,1,1,1,1,1,1,1,1,1,1,1,1,1,1,1,
34,1,1,1,1,1,1,1,1,1,1,1,1,1,1,1,
41,33,33,33,33,33,33,33,33,33,33,33,33,33,33,33
</data>
 </layer>
 <objectgroup id="2" name="objects"/>
 <objectgroup id="3" name="meta">
  <object id="5" name="start" type="start" x="32" y="208">
   <point/>
  </object>
  <object id="9" name="edge_exit_00" type="edge_exit" x="240" y="176" width="16" height="64">
   <properties>
    <property name="id" value="edge_exit_00"/>
    <property name="to" value="room01"/>
   </properties>
  </object>
  <object id="10" name="edge_exit_01" type="edge_exit" x="240" y="16" width="16" height="64">
   <properties>
    <property name="id" value="edge_exit_01"/>
    <property name="to" value="room01"/>
   </properties>
  </object>
  <object id="11" name="edge_exit_02" type="edge_exit" x="16" y="0" width="48" height="16">
   <properties>
    <property name="id" value="edge_exit_02"/>
    <property name="to" value="room05"/>
   </properties>
  </object>
 </objectgroup>
</map>
